X: 1276
T: The Curragh Races
R:Reel
N:Collected by McFadden
B:O'Neill's 1276
Z:Transcribed by Trish O'Neil
M:C|
L:1/8
K:Am
a|e2(3cBA eA (3cBA|G2(Bc) dBGg|eA (3cBA e^fge|dBGB cAAa|
eA (3cBA eA (3cBA|G2(Bc) dBGB|TcBcAB2T(ge)|dBGB (cA A||
B|(3cdc ec gcec|(3cdc ge dBGB|(3cdc ec gcec|dBGB {d}cAAB|
(3cdc ec gce^f|(3gag ge dBGB|T(cB)cAB2T(ge)|dBGB (cA)A|]


